!!!COM: Henri Reber
!!!CNT: Francais
!!!TXO: Francais
!!!OTL: Le Voile de la Chatelaine
!!!LYR: Abbe/ de L'Ecluse
!!!ODT: 1863/
!!!ENC: Jacob Pegg
!!!YOR: Romantic French Song 1830-1870, David Tunley, ed., New York: Garland Publishing, Inc., 1995, vol. 3
!!NB: Vocal melody and text only encoded.
!!NB: First instance of melodic material only encoded.
**kern	**silbe
*clef G2	*
*k[b-e-a-d-]	*
*M6/8	*
=5	=5
{8f	{Quand
8a-	ton
8b-	e/-
4.cc	-poux
=6	=6
8dd-	vieux
8cc	et
8b-	ja-
4.cc}	-loux}
=7	=7
8r	.
{8b-	{s'en
8b-	i-
8a-	-ra
8a-	cha^-
8b-	-te-
=8	=8
4.cc	-lai-
4f}	-ne,}
8r	.
=9	=9
{8f	{a-
8a-	-vec
8b-	ses
4.cc	fous
=10	=10
8cc	chas-
8dd-	-ser
8cc	aux
4.b-	loups
=11	=11
8a-	dans
8b-	la
8a-	fo-
4dd-	-re^t
8dd-	loin-
=12	=12
(4cc	-tai-
8b-)	|
4a-}	-ne,}
8r	.
=13	=13
*k[b-]	*
4r	.
8r	.
{4cc	{lais-
8cc	-se,
=14	=14
4cc	dans
8cc	la
8ee	bri-
8dd	-se
8cc	du
=15	=15
(4cc	soir,
8a)}	|}
{8cc	{sur
8dd	le
8cc	cre/-
=16	=16
(8cc	-neaux
8b-)	|
8b-	de
(8b-	ton
8a)	|
8g	ma-
=17	=17
4g}	-noir,}
8r	.
{8g	{com-
8a	-me une
8b-	e/-
=18	=18
(8cc	-toi-
8ff)	|
8cc	-le
(8cc	fir-
8dd)	|
8cc	-ma-
=19	=19
4cc}	-ment,}
{8cc	{flot-
(8ff	-ter
8dd)	|
8cc	ton
=20	=20
8a	voi-
8a	-le,
8a	ton
(8.a	voi-
16b-)	|
(16a	-le
16f)	|
=21	=21
(fq	blanc.
4.a)}	|}
4r	.
8r	.
*-	*-
